X:0614
T:A Trip to Inchcomb.
S:Aird's Airs v4 (NLS Glen.16b)
N:initial rest added to fix up repeat
M:4/4
L:1/8
Q:1/4=120
I: :| ||
Z:Jack Campin * www.campin.me.uk * 2009
K:G
z|B/c/d dd c<d Te2|(B/c/d) BG F<ATA2|(B/c/d) dd (c/d/e/f/ g2)| fadf        g2     G   :|
g|g>abg    a<f Td2| e>fge    d<B TG2| c>dec      Bdge        |(ed)(cB)    [B2G2] [A2F2]|
  g>abg    a>f Td2| e>fge    dBGB   | c>dec      Bdge        | dB {d}cB/A/ G2     G2  |]

